teeny/solid/google.svg

<svg width="15" height="15" viewBox="0 0 15 15" fill="none" xmlns="http://www.w3.org/2000/svg">
<path fill-rule="evenodd" clip-rule="evenodd" d="M0 7.5C0 3.35786 3.35786 0 7.5 0C9.59849 0 11.4964 0.862501 12.8571 2.25107L12.1429 2.95097C10.9625 1.74643 9.31889 1 7.5 1C3.91015 1 1 3.91015 1 7.5C1 11.0899 3.91015 14 7.5 14C10.9216 14 13.7257 11.3562 13.9811 8H8V7H15V7.5C15 11.6421 11.6421 15 7.5 15C3.35786 15 0 11.6421 0 7.5Z" fill="black"/>
</svg>

<svg viewBox="0 0 15 15" xmlns="http://www.w3.org/2000/svg"><path fill-rule="evenodd" d="M0 7.5C0 3.35 3.35 0 7.5 0c2.09 0 3.99.86 5.35 2.25l-.72.69C10.94 1.73 9.3.98 7.48.98 3.89.98.98 3.89.98 7.48c0 3.58 2.91 6.5 6.5 6.5 3.42 0 6.22-2.65 6.48-6H7.97v-1h7v.5c0 4.14-3.36 7.5-7.5 7.5 -4.15 0-7.5-3.36-7.5-7.5Z"/></svg>
